resources/icons/20px/locomotive.svg

<svg width="20" height="20" viewBox="0 0 20 20" fill="none" xmlns="http://www.w3.org/2000/svg">
<path fill-rule="evenodd" clip-rule="evenodd" d="M9.98829 2H1.9987C1.44713 2 1 2.44772 1 3V16H2.74042C2.90169 16 3.05386 15.919 3.15168 15.7907C5.47693 12.7389 7.7754 14.3528 8.83609 15.7819C8.93568 15.9161 9.08988 16 9.25683 16H9.74407C9.89816 16 10.045 15.9256 10.1428 15.8064C12.7186 12.6638 14.9055 14.3149 15.8296 15.7483C15.9279 15.9008 16.093 16 16.2743 16H18.7697C19.2146 16 19.4374 15.4614 19.1228 15.1464L17.9779 14C21.4733 11 19.9753 8.33333 16.9792 7V5L18.1241 3.85355C18.4387 3.53857 18.2159 3 17.771 3H14.1899C13.7451 3 13.5223 3.53857 13.8368 3.85355L14.9818 5V7H10.987V3C10.987 2.44772 10.5399 2 9.98829 2ZM2.9974 4H5.99349V9H2.9974V4ZM8.98959 4H6.99219V9H8.98959V4Z" fill="#111418"/>
<path fill-rule="evenodd" clip-rule="evenodd" d="M5.99349 19C7.09662 19 7.99089 18.1046 7.99089 17C7.99089 15.8954 7.09662 15 5.99349 15C4.89036 15 3.99609 15.8954 3.99609 17C3.99609 18.1046 4.89036 19 5.99349 19ZM5.99349 18C6.54506 18 6.99219 17.5523 6.99219 17C6.99219 16.4477 6.54506 16 5.99349 16C5.44193 16 4.99479 16.4477 4.99479 17C4.99479 17.5523 5.44193 18 5.99349 18Z" fill="#111418"/>
<path fill-rule="evenodd" clip-rule="evenodd" d="M12.9844 19C14.0875 19 14.9818 18.1046 14.9818 17C14.9818 15.8954 14.0875 15 12.9844 15C11.8813 15 10.987 15.8954 10.987 17C10.987 18.1046 11.8813 19 12.9844 19ZM12.9844 18C13.536 18 13.9831 17.5523 13.9831 17C13.9831 16.4477 13.536 16 12.9844 16C12.4328 16 11.9857 16.4477 11.9857 17C11.9857 17.5523 12.4328 18 12.9844 18Z" fill="#111418"/>
</svg>

<svg xmlns="http://www.w3.org/2000/svg" viewBox="0 0 20 20">
  <path d="M9.988 2h-7.99A1 1 0 0 0 1 3v13h1.74a.52.52 0 0 0 .412-.21c2.325-3.051 4.623-1.437 5.684-.008.1.134.254.218.42.218h.488c.154 0 .301-.074.399-.194 2.576-3.142 4.762-1.491 5.687-.058a.53.53 0 0 0 .444.252h2.496a.5.5 0 0 0 .353-.854L17.978 14c3.495-3 1.997-5.667-.999-7V5l1.145-1.146A.5.5 0 0 0 17.771 3H14.19a.5.5 0 0 0-.353.854L14.982 5v2h-3.995V3a1 1 0 0 0-.999-1m-6.99 2h2.995v5H2.997zM8.99 4H6.992v5H8.99z"/>
  <path d="M5.993 19a2 2 0 0 0 1.998-2 1.999 1.999 0 1 0-3.995 0c0 1.105.894 2 1.997 2m0-1a1 1 0 1 0 0-1.999 1 1 0 0 0 0 1.999M12.984 19a2 2 0 0 0 1.998-2 1.999 1.999 0 1 0-3.995 0c0 1.105.894 2 1.997 2m0-1a1 1 0 1 0 0-1.999 1 1 0 0 0 0 1.999"/>
</svg>
